X: 95
I: linebreak $
T: Shepherd's Holiday, or Labour in Vain
T: longways for three couples
P: 
C: 
N: 
M: 6/4
L: 1/8
K: Bb major
P: A
 |: d2 | "Gm"d3ed2 "Eb"g6 | "F"f6 e6 | "Gm"d3ed2 "Cm"c4B2 | "F"A2G2A2 "Bb"BABcde | "Bb"f3ed2 "F"c4B2 | "Bb"B6- B4 :: 
P: B
d2 | 
"Bb"d3ef2 d2c2B2 | "Bb"d4B2 d6 | "Gm"B3cd2 B2A2G2 | "D"d4^F2 d6 | "Eb"G3AB2 G2F2E2 | "Bb"B6 "F"c3def | 
"Bb"d3cBA "F"B2A3G | "Gm"G6- G4 :| 

